X:1
T:Consecration (Aldrich), CM
T:Consecration (Aldrich), CM
T:Jonathan Aldrich, 1858
T:Public Domain Courtesy of the Cyber Hymnal™
C:Jonathan Aldrich, 1858
Z:Public Domain
Z:Courtesy of the Cyber Hymnal™
%%score ( 1 2 ) ( 3 4 )
L:1/8
Q:1/4=135
M:6/4
K:Bb
V:1 treble 
V:2 treble 
V:3 bass 
V:4 bass 
V:1
 [DF]2 | [FB]4 [Fd]2 G4 [FA]2 | [FB]4 [EG]2 [DF]4 [DF]2 | [FB]4 [Fc]2 [Fd]4 [Ff]2 | %4
 [Fc]6- [Fc]4 ([Bd][ce]) | [df]4 [eg][df] [Bd]4 [Ac]2 | [GB]4 (GB) [DF]4 [DF]2 | %7
 [EG]4 [FB]2 [Fc]4 (dc) | [DB]6- [DB]4 |] %9
V:2
 x2 | x6 G4 x2 | x12 | x12 | x12 | x12 | x4 E2 x6 | x10 F2 | x10 |] %9
V:3
 [B,,B,]2 | [B,,D]4 [B,,D]2 [E,B,]4 [F,C]2 | [B,,D]4 [B,,B,]2 [B,,B,]4 [B,,B,]2 | %3
 [B,,D]4 [F,C]2 B,4 [D,B,]2 | [F,A,]6- [F,A,]4 B,2 | B,4 B,2 B,4 [D,F,]2 | %6
 (G,2 B,2) [E,B,]2 [B,,B,]4 [B,,B,]2 | [E,B,]4 [D,B,]2 [F,A,]4 F,2 | [B,,F,]6- [B,,F,]4 |] %9
V:4
 x2 | x12 | x12 | x6 B,4 x2 | x10 B,2 | B,4 B,2 B,4 x2 | E,4 x8 | x10 F,2 | x10 |] %9

